X: 1
T: the Tripper's Jig
R: Jig
C: Trad.-The Rankin Family, Ashley MacIsaac,-arr. Sandy MacIntyre
F: Found at http://kirby98.fsnet.co.uk/tr/Trippers_1.abc in March 2006
O: Cape Breton
M: 6/8
L: 1/8
K: D
% "PlayingMod e:AA,B B,CC, BB," was prefixed to first line:
|:\
ABd e2A | g2d e2A | ABd e2f | g2(e d)BG |\
ABd e2A | egd e2A | BAB GBd | g2(e d)BG :|
|:\
ABA a3 | gfe a3 | ABA a2f | g2(e d)BG |\
ABA a3 | gfe a3 | g2(e d)Bd | ege dBG :|
|:\
ABA c2A | d2B c2A | ABA c2A | d2(c B)AG |\
ABA c2A | d2B c2A | BAB GBd | g2(ed )BG :|
